X:1
T:Title
%%score ( 1 2 ) ( 3 4 )
L:1/8
Q:1/4=103
M:6/8
K:C
V:1 treble nm="Grand Piano, Soprano"
V:2 treble 
V:3 bass nm="Choir Pad, Lake District, 86.86.86 D"
V:4 bass 
V:1
 [EG] [EG]2 [EA] [EB]2 | [Ec] [Fc]2 [FB] [FB]2 | [Fc] [FB]2 [B,D] [DF]2 | %3
w: By~Adam~Geibel,~1901 * * *|||
 [FA] [EG]2- [EG]3/2 z/ z | [EG] [EG]2 [EA] [EB]2 | [Ec] [Dc]2 [DB] [DB]2 | %6
w: |||
 [Ec] [DB]2 [CD] [C^F]2 | [CA] [B,G]2- [B,G]3/2 z/ z | G [Fe]2 [Fd] [FB]2 | [FG] [EA]2 [EB] [EA]2 | %10
w: ||||
 [EG] [D^F]2 [FA] [Fe]2 | z d2- d z z | [FG] [EG]2 [Ec] [Ed]2 | [Ec] [Dc]2 [CD] [CD]2 | %14
w: ||||
 A c2 A [DF]2 | [CE] B,2- B,-[B,G-]<G | G [CE]2 [CG] [CA]2 | [CG] [B,F]2 [B,G] [B,A]2 | %18
w: ||||
 [B,G] [B,F]2 [B,G] [Gf]2 | [Gf] [Af]2- [Af] .[Ge]2 | [Ge] [Ge]2 [Ge] [Af]2 | %21
w: |||
 [Ge] [^Fd]2 [FA] [FB]2 | [^Fc] [=Fe]2 [Fd] [FB]2 | [FG] [Ec]2- [Ec]3- | [Ec]3 z3 |] %25
w: ||||
V:2
 x6 | x6 | x6 | x6 | x6 | x6 | x6 | x6 | x6 | x6 | x6 | [^Fd] =F2- F-[FG-]<G | x6 | x6 | x6 | %15
 z D2- D z z | x6 | x6 | x6 | x6 | x6 | x6 | x6 | x6 | x6 |] %25
V:3
 [C,G,] [C,G,]2 [C,G,] [C,G,]2 | [C,G,] [D,G,]2 [D,G,] [D,G,]2 | [D,G,] [G,,G,]2 [G,,G,] [G,,G,]2 | %3
 [G,,G,] [C,G,]2- [C,G,]3/2 z/ z | [C,G,] [C,G,]2 [C,G,] [C,G,]2 | [C,G,] [D,G,]2 [D,G,] [D,G,]2 | %6
 [D,G,] [D,^F,]2 [D,F,] [D,A,]2 | [D,^F,] [G,,G,]2- [G,,G,]3/2 z/ z | G, [G,B,]2 [G,B,] [G,D]2 | %9
 [G,B,] [C,C]2 [C,C] [C,C]2 | [C,C] [D,C]2 [D,C] [D,C]2 | [D,C] [G,B,]2- [G,B,]3/2 z/ z | %12
 [G,B,] [C,C]2 [C,C] [C,C]2 | [C,G,] [F,A,]2 [F,A,] [F,A,]2 | A, C2 A, [F,A,]2 | %15
 [^F,A,] G,2- G,3/2 z/ z | [G,,G,] [C,G,]2 [G,,E,] [C,E,]2 | [G,,E,] [D,G,]2 [G,,F,] [D,F,]2 | %18
 [G,,F,] [D,G,]2 [G,,G,] [G,B,]2 | z C2- C3/2 z/ z | [C,C] [A,^C]2 [A,C] [A,C]2 | %21
 [A,^C] [D,=C]2 [D,C] [D,B,]2 | [D,A,] [G,B,]2 [G,B,] [G,D]2 | [G,B,] [C,C]2- [C,C]3- | %24
 [C,C]3 z3 |] %25
V:4
 x6 | x6 | x6 | x6 | x6 | x6 | x6 | x6 | x6 | x6 | x6 | x6 | x6 | x6 | x6 | x6 | x6 | x6 | x6 | %19
 .[B,D]3 z .C,2 | x6 | x6 | x6 | x6 | x6 |] %25

